source/renderer/app/assets/images/copy.inline.svg

<svg viewBox="0 0 24 28" version="1.1" xmlns="http://www.w3.org/2000/svg" xmlns:xlink="http://www.w3.org/1999/xlink">
  <g id="Page-1" stroke="none" stroke-width="1" fill="none" fill-rule="evenodd">
    <g id="wallet-public-key" transform="translate(-1486.000000, -364.000000)" fill="#5E6066">
      <g id="amount" transform="translate(60.000000, 264.000000)">
        <g id="input" transform="translate(0.000000, 17.000000)">
          <g id="rename" transform="translate(1410.000000, 69.000000)">
            <g id="clipboard-ic" transform="translate(16.000000, 14.000000)">
              <path d="M16.0049107,6 C17.1067681,6 18,6.88967395 18,7.991155 L18,26.008845 C18,27.1085295 17.1073772,28 16.0049107,28 L1.99508929,28 C0.893231902,28 0,27.1103261 0,26.008845 L0,7.991155 C0,6.89147046 0.892622799,6 1.99508929,6 L16.0049107,6 Z M13.9975267,9 L4.00247329,9 C3.45576096,9 3,9.4481055 3,10.0008717 L3,10.0008717 L3,23.9991283 C3,24.5553691 3.44882258,25 4.00247329,25 L4.00247329,25 L13.9975267,25 C14.544239,25 15,24.5518945 15,23.9991283 L15,23.9991283 L15,10.0008717 C15,9.44463086 14.5511774,9 13.9975267,9 L13.9975267,9 Z M22.0049107,0 C23.1067681,0 24,0.889673948 24,1.991155 L24,20.008845 C24,21.1085295 23.1073772,22 22.0049107,22 L20,22 L20.0005556,18.9999954 C20.5068945,18.9984623 20.9345441,18.6126331 20.993157,18.1158511 L21,17.9991283 L21,4.00087166 C21,3.44463086 20.5511774,3 19.9975267,3 L19.9975267,3 L10.0024733,3 C9.45576096,3 9,3.4481055 9,4.00087166 L9,4.00087166 L6,4 L6,1.991155 C6,0.891470458 6.8926228,0 7.99508929,0 L22.0049107,0 Z" id="Combined-Shape"></path>
            </g>
          </g>
        </g>
      </g>
    </g>
  </g>
</svg>

<svg xmlns="http://www.w3.org/2000/svg" width="24" height="28" viewBox="0 0 24 28">
    <g fill="none" fill-rule="evenodd">
        <g fill="#5E6066">
            <g>
                <g>
                    <g>
                        <g>
                            <path d="M16.005 6C17.107 6 18 6.89 18 7.991V26.01c0 1.1-.893 1.991-1.995 1.991H1.995C.893 28 0 27.11 0 26.009V7.99C0 6.891.893 6 1.995 6h14.01zm-2.007 3H4.002C3.456 9 3 9.448 3 10v14c0 .555.449 1 1.002 1h9.996c.546 0 1.002-.448 1.002-1V10c0-.555-.449-1-1.002-1zm8.007-9C23.107 0 24 .89 24 1.991V20.01c0 1.1-.893 1.991-1.995 1.991H20v-3c.507-.002.935-.387.993-.884l.007-.117V4.001C21 3.445 20.551 3 19.998 3h-9.996C9.456 3 9 3.448 9 4H6V1.991C6 .891 6.893 0 7.995 0h14.01z" transform="translate(-1462 -364) translate(60 264) translate(0 17) translate(1386 69) translate(16 14)"/>
                        </g>
                    </g>
                </g>
            </g>
        </g>
    </g>
</svg>
